svgs/bar-chart.svg

<svg xmlns="http://www.w3.org/2000/svg" viewBox="0 0 452.979 452.979">
  <path d="M437.979 433.724l-419.29.565.566-418.723c.011-8.284-.495-15-8.78-15C2.193.566 0 6.716 0 15v422.979c0 8.284 6.716 15 15 15h422.979c8.284 0 14.434-2.192 14.434-10.476s-6.15-8.79-14.434-8.78z"/><path d="M56.998 405.981h78.927c5.523 0 10-4.477 10-10v-82.833c0-5.523-4.477-10-10-10H56.998c-5.523 0-10 4.477-10 10v82.833c0 5.523 4.477 10 10 10zm10-82.833h58.927v62.833H66.998v-62.833zM179.147 405.981h78.927c5.522 0 10-4.477 10-10v-215.6c0-5.523-4.478-10-10-10h-78.927c-5.523 0-10 4.477-10 10v215.6c0 5.523 4.477 10 10 10zm10-215.599h58.927v195.6h-58.927v-195.6zM305.054 405.981h78.928c5.522 0 10-4.477 10-10V49.161c0-5.523-4.478-10-10-10h-78.928c-5.522 0-10 4.477-10 10v346.82c0 5.523 4.478 10 10 10zm10-346.82h58.928v326.82h-58.928V59.161z"/>
</svg>

<?xml version="1.0" encoding="utf-8"?>
<!-- Generator: Adobe Illustrator 26.1.0, SVG Export Plug-In . SVG Version: 6.00 Build 0)  -->
<svg version="1.1" id="Layer_1" xmlns="http://www.w3.org/2000/svg" xmlns:xlink="http://www.w3.org/1999/xlink" x="0px" y="0px"
	 viewBox="0 0 453 453" style="enable-background:new 0 0 453 453;" xml:space="preserve">
<style type="text/css">
	.st0{fill:#FFFFFF;}
</style>
<path class="st0" d="M438,433.7l-419.3,0.6l0.6-418.7c0-8.3-0.5-15-8.8-15C2.2,0.6,0,6.7,0,15v423c0,8.3,6.7,15,15,15h423
	c8.3,0,14.4-2.2,14.4-10.5S446.3,433.7,438,433.7L438,433.7z"/>
<path class="st0" d="M57,406h78.9c5.5,0,10-4.5,10-10v-82.8c0-5.5-4.5-10-10-10H57c-5.5,0-10,4.5-10,10V396
	C47,401.5,51.5,406,57,406z M67,323.1h58.9V386H67V323.1z M179.1,406h78.9c5.5,0,10-4.5,10-10V180.4c0-5.5-4.5-10-10-10h-78.9
	c-5.5,0-10,4.5-10,10V396C169.1,401.5,173.6,406,179.1,406z M189.1,190.4h58.9V386h-58.9V190.4z M305.1,406H384c5.5,0,10-4.5,10-10
	V49.2c0-5.5-4.5-10-10-10h-78.9c-5.5,0-10,4.5-10,10V396C295.1,401.5,299.5,406,305.1,406L305.1,406z M315.1,59.2H374V386h-58.9
	V59.2L315.1,59.2z"/>
</svg>
